packages/core/src/svgs/joe.svg

<svg width="24" height="24" viewBox="0 0 24 24" fill="none" xmlns="http://www.w3.org/2000/svg">
<g clip-path="url(#clip0_31_12115)">
<path d="M0 0H24V24H0V0Z" fill="#F0F3FA"/>
<path d="M6.42859 7.28564C7.36287 8.29707 10.6329 10.1785 11.76 11.1428C12.96 10.6285 15.8614 8.90993 17.1429 7.28564C16.4872 6.62993 12.8143 4.85564 11.7857 4.28564C10.5043 4.9585 7.42716 6.4285 6.42859 7.28564Z" fill="#F2716A"/>
<path d="M6.42859 9.17993C6.6943 9.2485 6.85716 9.81422 7.0543 9.93422C7.29859 10.0714 7.45716 9.88279 7.69716 10.0114C7.9843 10.1614 8.71716 10.5342 8.84145 10.7185C9.05145 10.7956 8.6443 11.2971 8.78573 11.3571C9.12002 11.5071 9.08145 12.6428 9.2143 12.8571C9.67287 12.9556 11.55 12.2142 12 12.4285V10.1142L9.25287 8.69993C8.70859 8.42564 8.35287 8.21993 7.87287 7.99279C7.4143 7.7785 6.91287 7.41422 6.42859 7.28564V9.17993Z" fill="#A24741"/>
<path d="M16.1657 15.1286C16.08 15.2786 13.8257 16.7571 13.4229 16.7871C13.3371 16.89 13.26 16.7957 13.1443 16.8814C12.8357 17.1386 12.7457 17.2543 12.3729 17.3314C12.1886 17.3957 12.1371 17.5243 12 17.7043C12.18 18.2014 12.3171 17.5629 12.3086 19.2857C13.1314 19.2257 13.8557 18.4371 14.5671 18.0943C14.58 18.09 14.5714 18 14.5714 17.8629C15.2786 17.9186 16.32 17.1343 16.9114 16.7914C17.19 16.6114 17.1386 16.5429 17.1386 16.5429L17.1171 15.1714C16.8729 15.12 16.9929 15.18 16.8729 15C16.4829 15.0429 16.4486 15.0643 16.1657 15.1286Z" fill="#3B1A26"/>
<path d="M16.2858 9.85714C16.3972 10.0029 17.0058 9.95571 17.1429 10.0714V9C16.9629 9.08571 16.3886 9.69 16.2858 9.85714Z" fill="#BD957E"/>
<path d="M11.7943 15.5443C11.8329 15.72 11.8072 16.1486 11.8243 16.3328C11.8672 16.9328 12.5057 16.3414 13.4529 16.4357C14.5757 16.3886 15.5015 16.0371 16.23 14.9786C16.4829 14.6057 16.2557 14.6057 16.4957 14.3786C16.7015 14.1857 16.7872 13.8728 17.0957 13.7014C17.1643 13.5043 17.2972 13.4443 17.3957 13.2643C17.5415 13.02 17.4815 12.8443 17.4815 12.48L14.61 14.0657C14.19 14.3014 12.0986 15.5743 11.7943 15.5443Z" fill="#D6D6D6"/>
<path d="M12 10.0971V12.2142C12.3 12.2142 13.1786 11.5885 13.4314 11.4085V10.7228C13.6286 10.2085 15.1543 9.62993 15.6771 9.49279C15.9514 9.41564 16.4786 9.50136 16.7143 9.64279C16.8429 9.53136 16.9157 9.2485 17.1429 9.19707V7.28564C15.7714 7.71422 13.3843 9.2785 12 10.0971Z" fill="#DB5B54"/>
<path d="M6.42859 13.0285C7.22145 13.3885 7.50002 13.9285 8.3143 13.8642C8.30145 13.2342 8.74287 13.1271 8.85859 12.5914C8.9443 12.2142 8.81573 11.3228 8.82002 10.8857C8.94002 10.6628 8.84573 10.8171 9.19716 10.71C9.07716 10.5085 8.09145 10.0585 7.82573 9.90424C7.60287 9.77567 7.44859 9.71138 7.22145 9.57424C7.03287 9.45852 6.68145 9.16281 6.42859 9.09424V13.0285Z" fill="#886B58"/>
<path d="M16.5 11.3613L16.4871 11.9998C16.0928 12.0898 16.2085 12.1198 15.8185 12.3127C15.63 12.4198 15.4028 12.5955 15.1028 12.6813L15.0985 12.167C15.0848 12.1821 15.0689 12.1951 15.0514 12.2055C14.8285 12.4113 14.7342 12.5484 14.4514 12.3598L14.43 13.127C14.1171 13.2255 14.0442 13.3498 13.7571 13.4398C13.5771 13.6498 13.2214 13.7955 13.0114 13.8641L13.0285 12.3213C13.2471 12.1627 13.8428 11.9784 13.7571 11.8927L12.9728 11.5841C12.7371 11.627 12.5228 11.7813 12.3514 11.8927C12.1328 12.0298 12.1585 12.0813 11.9742 12.1927L11.9957 15.2313C13.3114 14.4898 16.3242 13.4227 17.1128 12.167V11.0698C16.8685 11.1084 16.6585 11.1984 16.4914 11.3613H16.5Z" fill="#BD957E"/>
<path d="M8.30147 13.8643V14.2843C8.61433 14.3872 9.1029 14.6786 9.36004 14.8757C9.65147 15.0043 9.8229 15.0686 9.9729 15.2443L10.38 15.4286C10.4572 15.5229 10.5515 15.5743 10.6715 15.6343C10.71 15.66 10.8686 15.7372 10.8729 15.7457C11.04 15.8572 10.86 15.66 10.9929 15.8829L11.1258 15.9343C11.3817 16.0219 11.6187 16.1571 11.8243 16.3329L11.9315 16.2943C11.8543 16.1872 11.8929 16.2815 11.8458 16.0972C11.8243 16.0029 11.8329 15.9686 11.8243 15.8743C11.8072 15.69 11.8372 15.7115 11.7986 15.5357C11.4129 15.4586 11.0958 14.9443 10.8729 14.6786L9.30005 12.7672C9.18005 12.4672 9.2529 11.4686 9.25719 11.0872C8.9829 11.0315 8.88433 10.8772 8.57147 10.8086C8.57147 11.3572 8.61862 12.0815 8.52862 12.4672C8.40862 13.0029 8.2929 13.2343 8.30147 13.8643Z" fill="#898988"/>
<path d="M13.0157 10.8087C13.3457 11.1172 14.3443 11.6915 14.7472 11.9229C15.2957 11.5801 16.92 10.7487 17.5629 10.1787C17.2329 9.97295 16.0029 9.01295 15.69 9.09866C15.1972 9.2358 13.2043 10.3115 13.0157 10.8129V10.8087Z" fill="#F2716A"/>
<path d="M12.0001 15.4288V12.2488C11.5329 12.0474 9.91291 11.2245 9.42863 11.1431C9.42863 11.4559 9.31291 12.2745 9.42863 12.5102L12.0001 15.4288Z" fill="#886B58"/>
<path d="M9.10717 11.0912C9.10717 11.477 9.03003 12.4755 9.15003 12.7755L10.8643 14.6827C11.0872 14.9527 11.4086 15.467 11.7943 15.5398C12.0943 15.5741 14.1943 14.297 14.6057 14.057L17.4857 12.4712C17.3743 12.3598 17.2329 12.2827 17.0915 12.1884C16.9457 12.437 17.1172 12.2355 16.7872 12.4284L11.8372 15.2141L9.46717 12.5355C9.36431 12.2784 9.4286 11.3012 9.4286 10.9541C9.20146 11.0098 9.28717 10.9627 9.10717 11.0912Z" fill="#FCFCFC"/>
<path d="M9.42859 17.5714C9.64287 17.7128 11.9957 19.4999 12.4286 19.2599C12.4372 17.6099 12.3129 18.2185 12.1286 17.7514C11.3572 17.5714 10.9886 17.4085 10.3286 17.0356C10.0972 17.1128 9.42859 17.1428 9.42859 17.5714Z" fill="#29121A"/>
<path d="M10.3715 16.4741C10.4357 16.5598 10.4057 16.5255 10.4186 16.7184C10.4272 16.8084 10.4443 16.9541 10.4272 17.1041C10.8729 17.3484 11.4557 17.6784 11.9186 17.9184C12.0472 17.9312 12.8486 17.5026 12.8572 17.3569V17.1426C13.0072 17.0441 13.2815 16.8041 13.5 16.7141C13.3372 16.6284 12.8829 16.9798 12.6772 16.8555C12.3429 16.2555 12.2915 16.1569 11.1429 15.8569C11.0015 15.9726 10.8857 15.9555 10.7143 16.0712C10.5429 16.1698 10.4743 16.3284 10.3715 16.4741Z" fill="#9B3D53"/>
<path d="M14.7557 11.7387L14.7385 12.4887C15.4457 11.9616 16.7314 11.203 17.5714 10.9716V10.1787C16.5081 10.4321 15.5344 10.9716 14.7557 11.7387Z" fill="#DB5B54"/>
<path d="M8.57146 18.0002V16.7145C8.31861 16.4916 8.15146 16.5259 7.92861 16.2859C8.10861 16.1102 8.08289 16.3545 8.35718 16.2859C8.17718 16.2945 8.37432 16.0416 8.36575 15.9131L8.14289 15.6431C7.79575 16.4102 7.47003 16.0631 6.85718 15.8916V17.1431C7.13146 17.2288 8.26718 17.9231 8.57146 18.0002Z" fill="#896C5A"/>
<path d="M6.90002 15.9C7.16573 15.9643 7.28573 16.1571 7.5343 16.1829C7.69716 16.1957 7.77002 16.1571 7.90287 16.1057C8.12145 16.02 8.09145 16.0971 8.18573 15.8914C7.94145 15.5829 8.06573 15.8914 7.91145 15.5443C8.06573 15.4157 8.00573 15.4071 8.26287 15.4371C8.31859 15.1757 8.31002 15.33 8.2243 15.2914C7.90287 15.36 8.15573 15.3771 7.90287 15.3214C7.80859 15.3514 7.59859 15.3429 7.51716 15.3814C6.60002 14.9829 7.01573 14.6957 7.26002 14.3229C7.26859 14.31 7.67573 14.3743 7.7143 14.3571C7.52573 13.0714 7.28573 14.7857 7.2343 13.6414C7.02002 13.7786 7.18287 13.7186 6.90002 13.7786C6.62573 13.5943 6.6943 13.6757 6.42859 13.5V15.66C6.61716 15.7457 6.70287 15.8186 6.90002 15.8957V15.9Z" fill="#9B3D53"/>
<path d="M7.23429 13.6284C7.23001 13.9284 7.23429 13.7699 7.02429 13.9456C7.38429 14.4942 7.44858 13.6413 7.52572 14.1942C7.59001 14.2627 7.31143 14.4256 7.37572 14.4942C7.44858 14.717 7.28143 14.867 7.41858 15.077C7.51715 15.2313 7.82572 15.2742 7.92001 15.4199C8.00572 15.4627 8.31858 15.1627 8.26286 15.4199L8.46001 15.6427C8.44286 15.9213 8.13001 16.0584 8.33144 16.0584C8.61429 16.1184 8.70429 16.1099 8.87572 16.3156C9.04715 16.517 8.63143 16.6799 8.67001 16.9499C8.72572 18.3642 8.82001 17.2499 9.23572 17.0999L9.42429 17.027L9.42858 16.7142C9.97715 16.7142 9.66429 16.577 10.0714 16.4999V16.7142H10.2857C10.3886 16.5684 10.5386 16.2856 10.7271 16.1742C10.8986 16.067 11.0014 15.9727 11.1429 15.857L11.0014 15.8742C10.7314 15.977 10.4571 16.1013 10.17 16.1184C9.99858 16.1484 10.0843 16.0756 10.0114 16.1742C9.90429 16.3113 9.46286 16.6242 9.20572 16.6327L8.84572 15.6684C8.56286 15.5827 8.26286 15.0256 8.13001 14.7556C7.97143 14.4384 7.93286 14.4942 7.77001 14.2542C7.56429 13.9542 7.56429 13.9799 7.53429 13.697L7.82572 13.7099C7.74001 13.5727 7.95001 13.6242 7.67572 13.5942C7.55572 13.6542 7.73144 13.4013 7.51715 13.4013L7.33715 13.4484C7.05001 13.2856 7.33715 13.4099 7.06286 13.2642C7.12715 13.4699 7.12715 13.4356 7.23429 13.6242V13.6284Z" fill="#C67768"/>
<path d="M13.0072 11.5757L13.6758 11.9357L13.7143 11.9786C13.9158 12.0772 14.1858 12.2057 14.3401 12.3429L14.4729 12.36C14.6401 12.4757 14.5672 12.4372 14.7386 12.4886L14.7558 11.7386C14.4343 11.5629 14.2158 11.4557 13.8943 11.2629C13.6801 11.1343 13.2729 10.8772 13.0158 10.8086L13.0072 11.58V11.5757Z" fill="#A24741"/>
<path d="M10.23 16.6199C10.0157 16.7571 9.53998 16.7914 9.30427 16.8899L9.0857 16.9242C8.95713 17.0656 8.9357 16.9456 8.86284 16.8385L8.57141 16.7785V17.9999C8.89284 17.9314 8.69998 17.9828 8.98284 17.8028C9.14141 17.7042 9.23141 17.6614 9.38998 17.5756C9.55284 17.3956 10.2386 17.2242 10.4571 17.1385C10.47 16.9756 10.5086 16.8171 10.5 16.7142C10.4871 16.5085 10.35 16.3714 10.2857 16.2856L10.23 16.6199Z" fill="#BD957E"/>
<path d="M8.83719 15.6729C8.65719 15.2657 8.6229 15.5657 8.67861 15.2014C8.83719 15.0986 8.68719 15.1843 8.90576 15.0986C9.17147 14.9914 8.9829 15.03 9.2829 14.9829L9.41147 14.8672C9.1012 14.6148 8.75624 14.4084 8.38719 14.2543L8.32719 13.8343L7.83861 13.6543L7.52576 13.6972C7.55147 13.9714 7.55576 13.9543 7.76147 14.2543C7.92433 14.4943 7.96719 14.4386 8.12147 14.7557C8.25433 15.0214 8.55004 15.5914 8.83719 15.6729Z" fill="#B64759"/>
<path d="M12.8443 17.2843C13.0372 17.2414 13.1272 17.1943 13.2643 17.1129C13.35 17.0614 13.3457 17.0786 13.4529 16.9843C13.5557 16.8986 13.5343 16.9243 13.6114 16.8257C15.2186 16.02 13.7057 16.7957 13.3372 16.2557L11.9957 16.1186L12.63 16.9157C12.8357 17.0443 12.9729 16.7957 13.1314 16.8814C12.9043 16.9714 12.8957 16.9714 12.7586 17.07L12.8443 17.2843ZM15.6514 15.1757L15.9129 15.4672C16.1357 15.4114 16.2214 15.33 16.4486 15.2229C16.7229 15.1586 16.5686 15.1286 16.9457 15.0986C17.1386 14.8457 17.1086 14.9443 17.1086 14.4986L17.1 13.6929C16.8 13.8729 16.7143 14.1857 16.5043 14.37C16.26 14.6014 16.2772 14.4557 16.0286 14.8243C15.7757 15.1843 15.7843 15.1843 15.6514 15.1757Z" fill="#C54D62"/>
<path d="M8.78577 15.857C8.8972 15.9256 9.07291 16.1656 9.14149 16.3884C9.51863 16.3027 9.8572 16.2856 10.0715 16.0713C9.23149 14.9098 9.78434 15.7541 9.28291 14.9741C9.0772 15.0084 8.85434 15.0813 8.68291 15.1884C8.57149 15.4284 8.74291 15.6041 8.78577 15.857Z" fill="#DA5A53"/>
<path d="M8.63994 16.9285L9.09423 16.7657C9.06706 16.5891 8.98697 16.425 8.86454 16.2949C8.74211 16.1648 8.5831 16.0749 8.40851 16.0371C8.12994 16.1057 8.01423 16.1657 7.83423 16.35L7.91137 16.4357C8.18566 16.6243 8.16851 16.5128 8.63994 16.9243V16.9285Z" fill="#9D4542"/>
<path d="M14.5072 16.0284L14.3872 16.097L14.3229 16.517C14.8372 16.4056 14.4343 16.4956 15.4372 15.8656C15.6814 15.7113 16.3072 15.4584 16.4443 15.2227C16.2214 15.3298 16.1357 15.3813 15.9172 15.437L15.6643 15.167C15.33 15.2313 15.57 15.0384 15.3214 15.377L14.7814 16.0027L14.5072 16.0284Z" fill="#AA3A62"/>
<path d="M7.84282 15.3769C7.73997 15.1669 7.72282 15.1069 7.61139 14.9526C7.34568 14.5755 7.37568 14.6312 7.71425 14.4084L7.52568 14.2026C7.48711 14.2155 7.23425 14.2884 7.22568 14.3012C7.01568 14.6312 7.26854 14.3612 6.83997 14.8369C6.94711 15.0984 7.14854 15.3812 7.51711 15.4755L7.65854 15.4326L7.83854 15.3769H7.84282Z" fill="#B74667"/>
<path d="M13.7743 13.4359C14.0657 13.3416 14.1386 13.2216 14.4514 13.1188L14.4729 12.3516L14.3443 12.3345C14.2071 12.4759 13.98 12.5659 13.7871 12.6345L13.7743 13.4359Z" fill="#493238"/>
<path d="M11.8243 16.3415C11.8329 16.5643 11.9529 16.7657 11.9401 16.8557C11.9186 17.0572 11.8243 16.8429 11.8329 17.34C12.0043 17.2843 12.3558 17.1557 12.5186 17.0829C12.5272 16.7957 12.5829 17.0272 12.4672 16.8172C12.2958 16.5172 12.4201 16.8172 12.2958 16.6029C12.1672 16.3715 12.3001 16.3972 12.0729 16.2129L11.9272 16.3029L11.8243 16.3457V16.3415Z" fill="#B74667"/>
<path d="M9.98566 16.1055L10.0971 16.1098C10.1999 15.6212 9.77566 15.6298 9.97281 15.2441C9.82281 15.0683 9.65138 15.0083 9.35995 14.8755L9.28281 14.9741C9.62566 15.5141 9.29995 15.3383 8.85852 15.6426C8.94423 15.7069 8.84566 15.7712 9.04709 15.7712C9.67281 15.7883 9.21852 15.3383 9.98995 16.1055H9.98566Z" fill="#DC8573"/>
<path d="M15.8314 11.7213L15.8229 12.3128C16.2129 12.1199 16.0972 12.0899 16.4872 11.9999L16.4957 11.3613L15.9557 11.6056L15.9129 11.6356L15.8272 11.7213H15.8314Z" fill="#493238"/>
<path d="M8.22434 15.2828C8.09577 15.0685 7.7872 14.597 7.71434 14.3999C7.1572 14.777 7.58149 15.4199 8.22434 15.2828Z" fill="#C54D62"/>
<path d="M10.0371 16.1056L10.0028 16.1827C10.0757 16.0799 10.0457 16.2556 10.2257 16.2256C10.3243 15.9684 10.32 16.0027 10.5257 15.8141L10.3886 15.4284L9.98142 15.2441L9.79285 15.407C9.93428 15.6727 10.0971 15.8184 10.0371 16.1056Z" fill="#D25652"/>
<path d="M6.42859 13.7141C6.66002 13.9369 6.49716 13.8512 6.83145 14.0484C7.17859 13.9841 7.23002 13.8555 7.50002 13.7141C7.36716 13.4998 7.15716 13.2812 7.07145 13.0584C6.86145 12.9255 6.77145 12.9084 6.42859 12.8569V13.7141Z" fill="#A24741"/>
<path d="M13.3286 16.2517L13.4572 16.4359C13.62 16.6202 13.6886 16.4874 13.6029 16.8217C13.9029 16.7959 14.2543 16.6331 14.5115 16.4402C14.4515 16.3802 14.37 16.1831 14.4986 16.0202L14.19 15.8745L13.3329 16.2517H13.3286Z" fill="#C75667"/>
<path d="M11.9743 17.7598L12.24 17.7169C12.3685 17.5541 12.2614 17.6484 12.4414 17.5412C12.473 17.518 12.5076 17.4993 12.5443 17.4855C12.7114 17.4084 12.4757 17.4941 12.7157 17.4169C12.7114 17.2541 12.7243 17.3012 12.6643 17.2155C12.3471 17.1769 12.39 17.3184 12.0728 17.4084C11.9571 17.4469 11.9871 17.4169 11.8843 17.4298C11.8543 17.6526 11.7771 17.7084 11.97 17.7598H11.9743Z" fill="#C54D62"/>
<path d="M10.0028 16.1871L10.0371 16.11H9.98995C8.59281 16.4743 9.58709 16.2943 8.85852 15.8271L9.19709 16.65C9.45423 16.6414 9.89566 16.32 10.0028 16.1871Z" fill="#A83B45"/>
<path d="M8.57141 10.9029C8.84998 10.9629 8.89284 11.0958 9.14141 11.1429C9.30855 11.0272 9.22713 11.0701 9.42855 11.0229C9.31284 10.8301 9.47998 10.9886 9.19284 10.8515L8.85855 10.7144C8.54141 10.8086 8.67855 10.7058 8.57141 10.9029Z" fill="#DBDCDC"/>
<path d="M10.1571 16.1356C10.4442 16.127 10.8771 15.9556 11.1428 15.857C11.0142 15.6427 10.56 15.6127 10.38 15.437L10.4357 15.797C10.23 15.9813 10.2642 15.8742 10.1614 16.1356H10.1571Z" fill="#A83B45"/>
<path d="M9.42434 17.0271C9.67719 16.9328 9.95577 16.7571 10.1829 16.6328L10.1401 16.4785C9.73719 16.5557 9.88291 16.6885 9.33862 16.6885L9.42434 17.0271Z" fill="#BB524B"/>
<path d="M8.02283 15.8999C8.23712 15.9128 8.5414 15.9642 8.55426 15.6513L8.35712 15.4285C8.10426 15.3985 8.05712 15.3985 7.90283 15.527C8.06569 15.8913 7.78283 15.5913 8.02283 15.8956V15.8999Z" fill="#DA5A54"/>
</g>
<defs>
<clipPath id="clip0_31_12115">
<rect width="24" height="24" fill="white"/>
</clipPath>
</defs>
</svg>

<svg xmlns="http://www.w3.org/2000/svg" width="24" height="24" fill="none" viewBox="0 0 24 24"><g clip-path="url(#a)"><path fill="#F0F3FA" d="M0 0h24v24H0z"/><path fill="#F2716A" d="M6.429 7.286c.934 1.011 4.204 2.893 5.331 3.857 1.2-.514 4.101-2.233 5.383-3.857-.656-.656-4.329-2.43-5.357-3-1.282.673-4.359 2.143-5.357 3"/><path fill="#A24741" d="M6.429 9.18c.265.069.428.634.625.754.245.137.403-.051.643.077.287.15 1.02.523 1.144.708.21.077-.197.578-.055.638.334.15.295 1.286.428 1.5.459.099 2.336-.643 2.786-.428v-2.315L9.253 8.7c-.544-.274-.9-.48-1.38-.707-.459-.215-.96-.579-1.444-.707z"/><path fill="#3B1A26" d="M16.166 15.129c-.086.15-2.34 1.628-2.743 1.658-.086.103-.163.009-.279.094-.308.258-.398.373-.771.45-.184.065-.236.193-.373.373.18.497.317-.141.309 1.582.822-.06 1.547-.849 2.258-1.192.013-.004.004-.094.004-.231.708.056 1.749-.729 2.34-1.072.279-.18.228-.248.228-.248l-.022-1.372c-.244-.051-.124.009-.244-.171-.39.043-.424.064-.707.129"/><path fill="#BD957E" d="M16.286 9.857c.111.146.72.099.857.214V9c-.18.086-.754.69-.857.857"/><path fill="#D6D6D6" d="M11.794 15.544c.039.176.013.605.03.789.043.6.682.008 1.629.103 1.123-.047 2.049-.399 2.777-1.457.253-.373.026-.373.266-.6.206-.193.291-.506.6-.678.068-.197.201-.257.3-.437.145-.244.085-.42.085-.784l-2.871 1.586c-.42.235-2.511 1.508-2.816 1.478"/><path fill="#DB5B54" d="M12 10.097v2.117c.3 0 1.179-.626 1.431-.806v-.685c.198-.514 1.723-1.093 2.246-1.23.274-.077.802.008 1.037.15.129-.112.202-.395.429-.446V7.286c-1.372.428-3.759 1.992-5.143 2.811"/><path fill="#886B58" d="M6.429 13.029c.792.36 1.071.9 1.885.835-.013-.63.429-.737.545-1.273.085-.377-.043-1.268-.039-1.705.12-.223.026-.069.377-.176-.12-.202-1.106-.652-1.371-.806-.223-.128-.377-.193-.605-.33-.188-.115-.54-.411-.792-.48z"/><path fill="#BD957E" d="m16.5 11.361-.013.639c-.394.09-.278.12-.668.313-.189.107-.416.282-.716.368l-.005-.514a.2.2 0 0 1-.047.039c-.223.205-.317.342-.6.154l-.021.767c-.313.098-.386.223-.673.313-.18.21-.536.356-.746.424l.018-1.543c.218-.158.814-.343.728-.428l-.784-.309c-.236.043-.45.197-.622.309-.218.137-.193.188-.377.3l.022 3.038c1.315-.741 4.328-1.808 5.117-3.064V11.07a1.1 1.1 0 0 0-.622.291z"/><path fill="#898988" d="M8.301 13.864v.42c.313.103.802.395 1.059.592.291.128.463.193.613.368l.407.185a.8.8 0 0 0 .291.205c.039.026.198.103.202.112.167.111-.013-.086.12.137l.133.051c.256.088.493.223.698.399l.107-.039c-.077-.107-.038-.012-.085-.197-.022-.094-.013-.128-.022-.223-.017-.184.013-.163-.025-.338-.386-.077-.703-.592-.926-.857L9.3 12.767c-.12-.3-.047-1.298-.043-1.68-.274-.056-.373-.21-.686-.278 0 .548.048 1.273-.042 1.658-.12.536-.236.767-.228 1.397"/><path fill="#F2716A" d="M13.016 10.809c.33.308 1.328.883 1.731 1.114.549-.343 2.173-1.174 2.816-1.744-.33-.206-1.56-1.166-1.873-1.08-.493.137-2.486 1.213-2.674 1.714z"/><path fill="#886B58" d="M12 15.429v-3.18c-.467-.202-2.087-1.024-2.571-1.106 0 .313-.116 1.131 0 1.367z"/><path fill="#FCFCFC" d="M9.107 11.091c0 .386-.077 1.385.043 1.685l1.714 1.907c.223.27.545.784.93.857.3.034 2.4-1.243 2.812-1.483l2.88-1.586c-.112-.111-.253-.188-.395-.283-.145.249.026.047-.304.24l-4.95 2.786-2.37-2.678c-.103-.258-.038-1.235-.038-1.582-.228.056-.142.009-.322.137"/><path fill="#29121A" d="M9.429 17.571c.214.142 2.567 1.929 3 1.689.008-1.65-.116-1.042-.3-1.509-.772-.18-1.14-.343-1.8-.715-.232.077-.9.107-.9.535"/><path fill="#9B3D53" d="M10.372 16.474c.064.086.034.052.047.244.008.09.025.236.008.386.446.244 1.029.574 1.492.814.128.013.93-.415.938-.561v-.214c.15-.099.425-.339.643-.429-.163-.086-.617.266-.823.142-.334-.6-.386-.7-1.534-1-.142.117-.257.1-.429.215-.171.099-.24.257-.343.403"/><path fill="#DB5B54" d="m14.756 11.739-.018.75c.708-.527 1.993-1.286 2.833-1.517v-.793a6 6 0 0 0-2.815 1.56"/><path fill="#896C5A" d="M8.571 18v-1.285c-.252-.223-.42-.19-.642-.43.18-.175.154.07.428 0-.18.01.017-.243.009-.372l-.223-.27c-.347.767-.673.42-1.286.249v1.251c.274.086 1.41.78 1.714.857"/><path fill="#9B3D53" d="M6.9 15.9c.266.064.386.257.634.283.163.013.236-.026.369-.077.218-.086.188-.009.283-.215-.245-.308-.12 0-.275-.347.155-.128.095-.137.352-.107.056-.261.047-.107-.039-.146-.321.069-.068.086-.321.03-.094.03-.304.022-.386.06-.917-.398-.501-.685-.257-1.058.009-.013.416.051.454.034-.188-1.286-.428.429-.48-.716-.214.138-.051.078-.334.138-.274-.185-.206-.103-.471-.279v2.16c.188.086.274.159.471.236z"/><path fill="#C67768" d="M7.234 13.628c-.004.3 0 .142-.21.318.36.548.425-.305.502.248.064.069-.215.232-.15.3.073.223-.095.373.043.583.098.154.407.197.501.343.086.043.399-.257.343 0l.197.223c-.017.278-.33.415-.129.415.283.06.373.052.545.258.171.201-.245.364-.206.634.056 1.414.15.3.566.15l.188-.073.005-.313c.548 0 .235-.137.642-.214v.214h.215c.103-.146.253-.428.441-.54.172-.107.274-.201.416-.317l-.142.017c-.27.103-.544.227-.831.244-.171.03-.086-.042-.159.056-.107.137-.548.45-.805.459l-.36-.965c-.283-.085-.583-.642-.716-.912-.159-.318-.197-.262-.36-.502-.206-.3-.206-.274-.236-.557l.292.013c-.086-.137.124-.086-.15-.116-.12.06.055-.193-.159-.193l-.18.047c-.287-.162 0-.038-.274-.184.064.206.064.172.171.36z"/><path fill="#A24741" d="m13.007 11.576.669.36.038.043c.202.098.472.227.626.364l.133.017c.167.116.094.077.266.129l.017-.75c-.322-.176-.54-.283-.862-.476-.214-.129-.621-.386-.878-.454l-.009.771z"/><path fill="#BD957E" d="M10.23 16.62c-.214.137-.69.171-.926.27l-.218.034c-.129.142-.15.022-.223-.085l-.292-.06v1.22c.322-.068.129-.016.412-.196.158-.099.248-.142.407-.227.163-.18.849-.352 1.067-.437.013-.163.052-.322.043-.425-.013-.205-.15-.343-.214-.428z"/><path fill="#B64759" d="M8.837 15.673c-.18-.407-.214-.107-.158-.472.158-.102.008-.017.227-.102.265-.108.077-.069.377-.116l.128-.116a4.2 4.2 0 0 0-1.024-.613l-.06-.42-.488-.18-.313.043c.025.274.03.257.235.557.163.24.206.185.36.502.133.265.429.835.716.917"/><path fill="#C54D62" d="M12.844 17.284c.193-.043.283-.09.42-.171.086-.052.082-.034.189-.129.103-.085.081-.06.158-.158 1.608-.806.095-.03-.274-.57l-1.341-.137.634.797c.206.128.343-.12.501-.035-.227.09-.235.09-.372.189zm2.807-2.108.262.291c.223-.056.308-.137.536-.244.274-.064.12-.094.497-.124.193-.253.163-.155.163-.6l-.009-.806c-.3.18-.386.493-.596.677-.244.231-.227.086-.475.454-.253.36-.245.36-.378.352"/><path fill="#DA5A53" d="M8.786 15.857c.111.069.287.309.355.531.378-.085.716-.102.93-.317-.84-1.161-.287-.317-.788-1.097a1.7 1.7 0 0 0-.6.214c-.112.24.06.416.103.669"/><path fill="#9D4542" d="m8.64 16.929.454-.163a.88.88 0 0 0-.685-.729c-.28.069-.395.129-.575.313l.077.086c.275.188.258.077.729.488z"/><path fill="#AA3A62" d="m14.507 16.028-.12.069-.064.42c.514-.111.111-.021 1.114-.651.244-.155.87-.408 1.007-.643-.223.107-.308.158-.527.214l-.253-.27c-.334.064-.094-.129-.343.21l-.54.626z"/><path fill="#B74667" d="M7.843 15.377c-.103-.21-.12-.27-.232-.424-.265-.377-.235-.322.103-.545l-.188-.205c-.039.013-.292.085-.3.098-.21.33.043.06-.386.536.107.261.309.544.677.639l.142-.043.18-.056z"/><path fill="#493238" d="M13.774 13.436c.292-.094.365-.214.677-.317l.022-.767-.129-.018c-.137.142-.364.232-.557.3z"/><path fill="#B74667" d="M11.824 16.342c.009.222.129.424.116.514-.021.201-.116-.013-.107.484.171-.056.523-.184.686-.257.008-.287.064-.056-.052-.266-.171-.3-.047 0-.171-.214-.129-.232.004-.206-.223-.39l-.146.09-.103.043z"/><path fill="#DC8573" d="m9.986 16.106.111.004c.103-.489-.321-.48-.124-.866-.15-.176-.322-.236-.613-.368l-.077.098c.343.54.017.364-.424.669.085.064-.013.128.188.128.626.017.172-.433.943.334z"/><path fill="#493238" d="m15.831 11.721-.008.592c.39-.193.274-.223.664-.313l.009-.639-.54.245-.043.03-.086.085z"/><path fill="#C54D62" d="M8.224 15.283c-.128-.214-.437-.686-.51-.883-.557.377-.133 1.02.51.883"/><path fill="#D25652" d="m10.037 16.106-.034.077c.073-.103.043.073.223.043.098-.258.094-.223.3-.412l-.137-.386-.408-.184-.188.163c.141.266.304.411.244.699"/><path fill="#A24741" d="M6.429 13.714c.231.223.068.137.402.334.348-.064.399-.193.669-.334-.133-.214-.343-.433-.429-.656-.21-.133-.3-.15-.642-.201z"/><path fill="#C75667" d="m13.329 16.252.128.184c.163.184.232.051.146.386.3-.026.651-.189.909-.382-.06-.06-.142-.257-.013-.42l-.309-.146-.857.378z"/><path fill="#C54D62" d="m11.974 17.76.266-.043c.128-.163.021-.069.201-.176a.4.4 0 0 1 .103-.056c.167-.077-.068.01.172-.068-.005-.163.008-.116-.052-.202-.317-.038-.274.103-.591.193-.116.039-.086.009-.189.022-.03.223-.107.278.086.33z"/><path fill="#A83B45" d="m10.003 16.187.034-.077H9.99c-1.397.364-.403.184-1.131-.283l.338.823c.257-.009.699-.33.806-.463"/><path fill="#DBDCDC" d="M8.571 10.903c.279.06.322.193.57.24.168-.116.086-.073.288-.12-.116-.193.051-.034-.236-.171l-.334-.138c-.318.095-.18-.008-.288.189"/><path fill="#A83B45" d="M10.157 16.136c.287-.009.72-.18.986-.279-.129-.214-.583-.244-.763-.42l.056.36c-.206.184-.172.077-.275.339z"/><path fill="#BB524B" d="M9.424 17.027c.253-.094.532-.27.759-.394l-.043-.154c-.403.077-.257.21-.801.21z"/><path fill="#DA5A54" d="M8.023 15.9c.214.013.518.064.531-.249l-.197-.223c-.253-.03-.3-.03-.454.099.163.364-.12.064.12.369z"/></g><defs><clipPath id="a"><path fill="#fff" d="M0 0h24v24H0z"/></clipPath></defs></svg>
